src/svgs/moon.svg

<?xml version="1.0" encoding="UTF-8" standalone="yes"?>
<svg viewBox="0 0 20 20">
  <path d="M10,5c-2.8,0-5,2.2-5,5s2.2,5,5,5s5-2.2,5-5S12.8,5,10,5z M10,6.5c1.9,0,3.5,1.6,3.5,3.5s-1.6,3.5-3.5,3.5
	c-0.7,0-1.3-0.2-1.9-0.5c0.1,0,0.2,0,0.4,0c1.4,0,2.5-1.3,2.5-3S9.9,7,8.5,7C8.4,7,8.3,7,8.1,7C8.7,6.7,9.3,6.5,10,6.5z"/>
</svg>

<?xml version="1.0" encoding="UTF-8" standalone="no"?>
<!-- Generator: Adobe Illustrator 19.0.1, SVG Export Plug-In . SVG Version: 6.00 Build 0)  -->

<svg
   xmlns:dc="http://purl.org/dc/elements/1.1/"
   xmlns:cc="http://creativecommons.org/ns#"
   xmlns:rdf="http://www.w3.org/1999/02/22-rdf-syntax-ns#"
   xmlns:svg="http://www.w3.org/2000/svg"
   xmlns="http://www.w3.org/2000/svg"
   xmlns:sodipodi="http://sodipodi.sourceforge.net/DTD/sodipodi-0.dtd"
   xmlns:inkscape="http://www.inkscape.org/namespaces/inkscape"
   version="1.1"
   id="Layer_1"
   x="0px"
   y="0px"
   viewBox="0 0 20 20"
   style="enable-background:new 0 0 20 20;"
   xml:space="preserve"
   inkscape:version="0.91 r13725"
   sodipodi:docname="moon.svg"><metadata
     id="metadata19"><rdf:RDF><cc:Work
         rdf:about=""><dc:format>image/svg+xml</dc:format><dc:type
           rdf:resource="http://purl.org/dc/dcmitype/StillImage" /><dc:title></dc:title></cc:Work></rdf:RDF></metadata><defs
     id="defs17" /><sodipodi:namedview
     pagecolor="#ffffff"
     bordercolor="#666666"
     borderopacity="1"
     objecttolerance="10"
     gridtolerance="10"
     guidetolerance="10"
     inkscape:pageopacity="0"
     inkscape:pageshadow="2"
     inkscape:window-width="2021"
     inkscape:window-height="908"
     id="namedview15"
     showgrid="false"
     inkscape:zoom="16"
     inkscape:cx="10.114404"
     inkscape:cy="11.207838"
     inkscape:window-x="0"
     inkscape:window-y="0"
     inkscape:window-maximized="0"
     inkscape:current-layer="Layer_1"
     inkscape:snap-bbox="true"
     inkscape:bbox-paths="true"
     inkscape:snap-bbox-edge-midpoints="true"
     inkscape:bbox-nodes="true"
     inkscape:snap-bbox-midpoints="true"
     inkscape:object-paths="true"
     inkscape:object-nodes="true"><inkscape:grid
       type="xygrid"
       id="grid4147" /></sodipodi:namedview><path
     style="color:#000000;clip-rule:nonzero;display:inline;overflow:visible;visibility:visible;opacity:1;isolation:auto;mix-blend-mode:normal;color-interpolation:sRGB;color-interpolation-filters:linearRGB;solid-color:#000000;solid-opacity:1;fill:#000000;fill-opacity:1;fill-rule:nonzero;stroke:none;stroke-width:2;stroke-linecap:round;stroke-linejoin:round;stroke-miterlimit:4;stroke-dasharray:none;stroke-dashoffset:0;stroke-opacity:1;marker:none;color-rendering:auto;image-rendering:auto;shape-rendering:auto;text-rendering:auto;enable-background:accumulate"
     d="M 10 5 A 5 5 0 0 0 5 10 A 5 5 0 0 0 10 15 A 5 5 0 0 0 15 10 A 5 5 0 0 0 10 5 z M 10 6.5 A 3.5 3.5 0 0 1 13.5 10 A 3.5 3.5 0 0 1 10 13.5 A 3.5 3.5 0 0 1 8.1484375 12.966797 A 2.5 3 0 0 0 8.5 13 A 2.5 3 0 0 0 11 10 A 2.5 3 0 0 0 8.5 7 A 2.5 3 0 0 0 8.1484375 7.0332031 A 3.5 3.5 0 0 1 10 6.5 z "
     id="path5437" /></svg>
